;Generated with Cura_SteamEngine 15.01
; Default start code
G28 ; Home extruder
G29
G1 Z15 F100
M107 ; Turn off fan
G90 ; Absolute positioning
M82 ; Extruder in absolute mode
; Activate all used extruder
M104 T0 S200
G92 E0 ; Reset extruder position
; Wait for all used extruders to reach temperature
M109 T0 S200
;Layer count: 100
;LAYER:0
M107
G0 F9000 X62.140 Y61.954 Z0.200
;TYPE:SKIRT
G1 F1800 X63.162 Y61.139 E0.04337
G1 X63.970 Y60.696 E0.07394
G1 X64.689 Y60.397 E0.09977
G1 X65.439 Y60.182 E0.12566
G1 X66.346 Y60.025 E0.15620
G1 X82.916 Y60.013 E0.70594
G1 X83.729 Y60.038 E0.73293
G1 X84.560 Y60.182 E0.76091
G1 X85.310 Y60.397 E0.78679
G1 X86.166 Y60.753 E0.81755
G1 X87.247 Y61.432 E0.85990
G1 X88.045 Y62.140 E0.89530
G1 X88.860 Y63.162 E0.93866
G1 X89.303 Y63.970 E0.96924
G1 X89.602 Y64.689 E0.99507
G1 X89.817 Y65.439 E1.02096
G1 X89.974 Y66.345 E1.05146
G1 X89.987 Y82.922 E1.60144
G1 X89.960 Y83.735 E1.62842
G1 X89.817 Y84.560 E1.65620
G1 X89.602 Y85.310 E1.68209
G1 X89.246 Y86.166 E1.71285
G1 X88.567 Y87.247 E1.75520
G1 X87.859 Y88.045 E1.79059
G1 X86.837 Y88.860 E1.83396
G1 X86.029 Y89.303 E1.86453
G1 X85.310 Y89.602 E1.89037
G1 X84.560 Y89.817 E1.91625
G1 X83.654 Y89.974 E1.94676
G1 X67.078 Y89.987 E2.49670
G1 X66.264 Y89.960 E2.52372
G1 X65.439 Y89.817 E2.55150
G1 X64.689 Y89.602 E2.57738
G1 X63.833 Y89.246 E2.60814
G1 X62.752 Y88.567 E2.65049
G1 X61.954 Y87.859 E2.68589
G1 X61.139 Y86.837 E2.72926
G1 X60.696 Y86.029 E2.75983
G1 X60.397 Y85.310 E2.78566
G1 X60.182 Y84.560 E2.81155
G1 X60.025 Y83.653 E2.84209
G1 X60.013 Y67.084 E3.39180
G1 X60.038 Y66.270 E3.41882
G1 X60.182 Y65.439 E3.44680
G1 X60.397 Y64.689 E3.47268
G1 X60.753 Y63.833 E3.50344
G1 X61.432 Y62.752 E3.54579
G1 X62.140 Y61.954 E3.58118
G0 F9000 X62.415 Y62.244
G1 F1800 X63.384 Y61.473 E3.62227
G1 X64.143 Y61.056 E3.65100
G1 X64.821 Y60.774 E3.67536
G1 X65.529 Y60.571 E3.69980
G1 X66.380 Y60.424 E3.72845
G1 X82.910 Y60.412 E4.27686
G1 X83.688 Y60.436 E4.30269
G1 X84.470 Y60.571 E4.32902
G1 X85.178 Y60.774 E4.35345
G1 X85.982 Y61.108 E4.38234
G1 X87.007 Y61.752 E4.42250
G1 X87.755 Y62.415 E4.45566
G1 X88.526 Y63.384 E4.49674
G1 X88.943 Y64.143 E4.52547
G1 X89.225 Y64.821 E4.54984
G1 X89.428 Y65.529 E4.57427
G1 X89.575 Y66.380 E4.60292
G1 X89.588 Y82.916 E5.15154
G1 X89.562 Y83.694 E5.17737
G1 X89.428 Y84.470 E5.20349
G1 X89.225 Y85.178 E5.22793
G1 X88.891 Y85.982 E5.25681
G1 X88.247 Y87.007 E5.29697
G1 X87.584 Y87.755 E5.33013
G1 X86.615 Y88.526 E5.37122
G1 X85.856 Y88.943 E5.39995
G1 X85.178 Y89.225 E5.42431
G1 X84.470 Y89.428 E5.44875
G1 X83.619 Y89.575 E5.47740
G1 X67.084 Y89.588 E6.02598
G1 X66.305 Y89.562 E6.05184
G1 X65.529 Y89.428 E6.07797
G1 X64.821 Y89.225 E6.10240
G1 X64.017 Y88.891 E6.13129
G1 X62.992 Y88.247 E6.17145
G1 X62.244 Y87.584 E6.20461
G1 X61.473 Y86.615 E6.24569
G1 X61.056 Y85.856 E6.27442
G1 X60.774 Y85.178 E6.29879
G1 X60.571 Y84.470 E6.32322
G1 X60.424 Y83.619 E6.35187
G1 X60.412 Y67.090 E6.90026
G1 X60.436 Y66.311 E6.92611
G1 X60.571 Y65.529 E6.95244
G1 X60.774 Y64.821 E6.97688
G1 X61.108 Y64.017 E7.00576
G1 X61.752 Y62.992 E7.04592
G1 X62.415 Y62.244 E7.07908
G0 F9000 X62.691 Y62.535
G1 F1800 X63.605 Y61.806 E7.11787
G1 X64.316 Y61.416 E7.14478
G1 X64.953 Y61.152 E7.16765
G1 X65.618 Y60.961 E7.19061
G1 X66.414 Y60.823 E7.21741
G1 X82.904 Y60.811 E7.76450
G1 X83.648 Y60.834 E7.78920
G1 X84.381 Y60.961 E7.81388
G1 X85.046 Y61.152 E7.83683
G1 X85.798 Y61.464 E7.86384
G1 X86.767 Y62.072 E7.90180
G1 X87.464 Y62.691 E7.93272
G1 X88.193 Y63.605 E7.97151
G1 X88.583 Y64.316 E7.99841
G1 X88.847 Y64.953 E8.02129
G1 X89.038 Y65.618 E8.04425
G1 X89.176 Y66.414 E8.07105
G1 X89.189 Y82.909 E8.61830
G1 X89.164 Y83.653 E8.64300
G1 X89.038 Y84.381 E8.66751
G1 X88.847 Y85.046 E8.69047
G1 X88.535 Y85.798 E8.71748
G1 X87.927 Y86.767 E8.75543
G1 X87.308 Y87.464 E8.78636
G1 X86.394 Y88.193 E8.82515
G1 X85.683 Y88.583 E8.85205
G1 X85.046 Y88.847 E8.87493
G1 X84.381 Y89.038 E8.89788
G1 X83.585 Y89.176 E8.92469
G1 X67.091 Y89.189 E9.47191
G1 X66.346 Y89.164 E9.49664
G1 X65.618 Y89.038 E9.52115
G1 X64.953 Y88.847 E9.54410
G1 X64.201 Y88.535 E9.57112
G1 X63.232 Y87.927 E9.60907
G1 X62.535 Y87.308 E9.64000
G1 X61.806 Y86.394 E9.67878
G1 X61.416 Y85.683 E9.70569
G1 X61.152 Y85.046 E9.72856
G1 X60.961 Y84.381 E9.75152
G1 X60.823 Y83.585 E9.77832
G1 X60.811 Y67.096 E10.32538
G1 X60.834 Y66.351 E10.35011
G1 X60.961 Y65.618 E10.37479
G1 X61.152 Y64.953 E10.39774
G1 X61.464 Y64.201 E10.42475
G1 X62.072 Y63.232 E10.46271
G1 X62.691 Y62.535 E10.49363
G0 F9000 X62.967 Y62.825
G1 F1800 X63.827 Y62.139 E10.53013
G1 X64.489 Y61.776 E10.55518
G1 X65.085 Y61.529 E10.57658
G1 X65.707 Y61.350 E10.59806
G1 X66.449 Y61.222 E10.62304
G1 X82.898 Y61.210 E11.16877
G1 X83.608 Y61.232 E11.19233
G1 X84.292 Y61.350 E11.21536
G1 X84.914 Y61.529 E11.23684
G1 X85.614 Y61.820 E11.26199
G1 X86.527 Y62.393 E11.29775
G1 X87.174 Y62.967 E11.32644
G1 X87.860 Y63.827 E11.36294
G1 X88.223 Y64.489 E11.38799
G1 X88.470 Y65.085 E11.40939
G1 X88.649 Y65.707 E11.43087
G1 X88.777 Y66.449 E11.45585
G1 X88.790 Y82.903 E12.00174
G1 X88.766 Y83.612 E12.02528
G1 X88.649 Y84.292 E12.04817
G1 X88.470 Y84.914 E12.06964
G1 X88.179 Y85.614 E12.09479
G1 X87.606 Y86.527 E12.13056
G1 X87.032 Y87.174 E12.15925
G1 X86.172 Y87.860 E12.19575
G1 X85.510 Y88.223 E12.22080
G1 X84.914 Y88.470 E12.24220
G1 X84.292 Y88.649 E12.26368
G1 X83.550 Y88.777 E12.28866
G1 X67.098 Y88.790 E12.83448
G1 X66.387 Y88.766 E12.85809
G1 X65.707 Y88.649 E12.88098
G1 X65.085 Y88.470 E12.90245
G1 X64.385 Y88.179 E12.92760
G1 X63.472 Y87.606 E12.96337
G1 X62.825 Y87.032 E12.99206
G1 X62.139 Y86.172 E13.02856
G1 X61.776 Y85.510 E13.05361
G1 X61.529 Y84.914 E13.07501
G1 X61.350 Y84.292 E13.09648
G1 X61.222 Y83.550 E13.12147
G1 X61.210 Y67.102 E13.66716
G1 X61.232 Y66.392 E13.69073
G1 X61.350 Y65.707 E13.71379
G1 X61.529 Y65.085 E13.73526
G1 X61.820 Y64.385 E13.76041
G1 X62.393 Y63.472 E13.79617
G1 X62.967 Y62.825 E13.82487
G0 F9000 X63.242 Y63.116
G1 F1800 X64.049 Y62.473 E13.85910
G1 X64.662 Y62.137 E13.88230
G1 X65.217 Y61.906 E13.90224
G1 X65.796 Y61.740 E13.92222
G1 X66.483 Y61.621 E13.94536
G1 X82.892 Y61.609 E14.48976
G1 X83.567 Y61.630 E14.51216
G1 X84.203 Y61.740 E14.53358
G1 X84.782 Y61.906 E14.55356
G1 X85.430 Y62.175 E14.57684
G1 X86.287 Y62.713 E14.61041
G1 X86.883 Y63.242 E14.63685
G1 X87.526 Y64.049 E14.67108
G1 X87.862 Y64.662 E14.69427
G1 X88.093 Y65.217 E14.71422
G1 X88.259 Y65.796 E14.73420
G1 X88.378 Y66.483 E14.75733
G1 X88.391 Y82.896 E15.30187
G1 X88.368 Y83.572 E15.32431
G1 X88.259 Y84.203 E15.34555
G1 X88.093 Y84.782 E15.36554
G1 X87.824 Y85.430 E15.38881
G1 X87.286 Y86.287 E15.42238
G1 X86.757 Y86.883 E15.44882
G1 X85.950 Y87.526 E15.48306
G1 X85.337 Y87.862 E15.50625
G1 X84.782 Y88.093 E15.52619
G1 X84.203 Y88.259 E15.54618
G1 X83.516 Y88.378 E15.56931
G1 X67.104 Y88.391 E16.11381
G1 X66.428 Y88.368 E16.13625
G1 X65.796 Y88.259 E16.15753
G1 X65.217 Y88.093 E16.17751
G1 X64.569 Y87.824 E16.20079
G1 X63.712 Y87.286 E16.23436
G1 X63.116 Y86.757 E16.26080
G1 X62.473 Y85.950 E16.29503
G1 X62.137 Y85.337 E16.31822
G1 X61.906 Y84.782 E16.33817
G1 X61.740 Y84.203 E16.35815
G1 X61.621 Y83.516 E16.38128
G1 X61.609 Y67.108 E16.92565
G1 X61.630 Y66.432 E16.94809
G1 X61.740 Y65.796 E16.96950
G1 X61.906 Y65.217 E16.98949
G1 X62.175 Y64.569 E17.01276
G1 X62.713 Y63.712 E17.04634
G1 X63.242 Y63.116 E17.07277
G0 F9000 X63.518 Y63.406
G1 F1800 X64.271 Y62.806 E17.10472
G1 X64.835 Y62.497 E17.12605
G1 X65.349 Y62.283 E17.14453
G1 X65.886 Y62.129 E17.16306
G1 X66.517 Y62.020 E17.18430
G1 X82.886 Y62.008 E17.72738
G1 X83.527 Y62.028 E17.74866
G1 X84.113 Y62.129 E17.76838
G1 X84.650 Y62.283 E17.78692
G1 X85.246 Y62.531 E17.80833
G1 X86.046 Y63.034 E17.83969
G1 X86.593 Y63.518 E17.86392
G1 X87.193 Y64.271 E17.89586
G1 X87.502 Y64.835 E17.91720
G1 X87.716 Y65.349 E17.93567
G1 X87.870 Y65.886 E17.95420
G1 X87.979 Y66.517 E17.97545
G1 X87.992 Y82.889 E18.51862
G1 X87.970 Y83.531 E18.53994
G1 X87.870 Y84.113 E18.55953
G1 X87.716 Y84.650 E18.57806
G1 X87.468 Y85.246 E18.59948
G1 X86.965 Y86.046 E18.63083
G1 X86.481 Y86.593 E18.65506
G1 X85.728 Y87.193 E18.68701
G1 X85.164 Y87.502 E18.70834
G1 X84.650 Y87.716 E18.72681
G1 X84.113 Y87.870 E18.74535
G1 X83.482 Y87.979 E18.76659
G1 X67.111 Y87.992 E19.30973
G1 X66.468 Y87.970 E19.33108
G1 X65.886 Y87.870 E19.35067
G1 X65.349 Y87.716 E19.36920
G1 X64.753 Y87.468 E19.39062
G1 X63.953 Y86.965 E19.42197
G1 X63.406 Y86.481 E19.44621
G1 X62.806 Y85.728 E19.47815
G1 X62.497 Y85.164 E19.49948
G1 X62.283 Y84.650 E19.51796
G1 X62.129 Y84.113 E19.53649
G1 X62.020 Y83.482 E19.55774
G1 X62.008 Y67.115 E20.10074
G1 X62.028 Y66.472 E20.12209
G1 X62.129 Y65.886 E20.14181
G1 X62.283 Y65.349 E20.16035
G1 X62.531 Y64.753 E20.18177
G1 X63.034 Y63.953 E20.21312
G1 X63.518 Y63.406 E20.23735
G0 F9000 X63.794 Y63.697
G1 F1800 X64.493 Y63.139 E20.26702
G1 X65.008 Y62.857 E20.28650
G1 X65.481 Y62.661 E20.30349
G1 X65.975 Y62.519 E20.32054
G1 X66.552 Y62.419 E20.33997
G1 X82.880 Y62.407 E20.88169
G1 X83.486 Y62.426 E20.90180
G1 X84.024 Y62.519 E20.91992
G1 X84.518 Y62.661 E20.93697
G1 X85.062 Y62.887 E20.95651
G1 X85.806 Y63.354 E20.98566
G1 X86.302 Y63.794 E21.00765
G1 X86.860 Y64.493 E21.03733
G1 X87.142 Y65.008 E21.05681
G1 X87.338 Y65.481 E21.07379
G1 X87.480 Y65.975 E21.09085
G1 X87.580 Y66.552 E21.11027
G1 X87.593 Y82.883 E21.65209
G1 X87.572 Y83.490 E21.67224
G1 X87.480 Y84.024 E21.69022
G1 X87.338 Y84.518 E21.70727
G1 X87.112 Y85.062 E21.72681
G1 X86.645 Y85.806 E21.75596
G1 X86.205 Y86.302 E21.77795
G1 X85.506 Y86.860 E21.80763
G1 X84.991 Y87.142 E21.82711
G1 X84.518 Y87.338 E21.84409
G1 X84.024 Y87.480 E21.86115
G1 X83.447 Y87.580 E21.88058
G1 X67.117 Y87.593 E22.42236
G1 X66.509 Y87.573 E22.44254
G1 X65.975 Y87.480 E22.46052
G1 X65.481 Y87.338 E22.47758
G1 X64.937 Y87.112 E22.49712
G1 X64.193 Y86.645 E22.52626
G1 X63.697 Y86.205 E22.54826
G1 X63.139 Y85.506 E22.57793
G1 X62.857 Y84.991 E22.59741
G1 X62.661 Y84.518 E22.61440
G1 X62.519 Y84.024 E22.63145
G1 X62.419 Y83.447 E22.65088
G1 X62.407 Y67.121 E23.19253
G1 X62.426 Y66.513 E23.21271
G1 X62.519 Y65.975 E23.23082
G1 X62.661 Y65.481 E23.24788
G1 X62.887 Y64.937 E23.26742
G1 X63.354 Y64.193 E23.29657
G1 X63.794 Y63.697 E23.31856
G0 F9000 X64.069 Y63.987
G1 F1800 X64.715 Y63.473 E23.34595
G1 X65.181 Y63.217 E23.36359
G1 X65.613 Y63.038 E23.37911
G1 X66.064 Y62.908 E23.39468
G1 X66.586 Y62.818 E23.41225
G1 X82.873 Y62.806 E23.95261
G1 X83.446 Y62.824 E23.97162
G1 X83.935 Y62.908 E23.98809
G1 X84.386 Y63.038 E24.00366
G1 X84.878 Y63.242 E24.02133
G1 X85.566 Y63.674 E24.04828
G1 X86.012 Y64.069 E24.06805
G1 X86.526 Y64.715 E24.09544
G1 X86.782 Y65.181 E24.11308
G1 X86.961 Y65.613 E24.12859
G1 X87.091 Y66.064 E24.14416
G1 X87.181 Y66.586 E24.16174
G1 X87.194 Y82.876 E24.70219
G1 X87.175 Y83.449 E24.72121
G1 X87.091 Y83.935 E24.73757
G1 X86.961 Y84.386 E24.75314
G1 X86.757 Y84.878 E24.77082
G1 X86.325 Y85.566 E24.79777
G1 X85.930 Y86.012 E24.81753
G1 X85.284 Y86.526 E24.84492
G1 X84.818 Y86.782 E24.86256
G1 X84.386 Y86.961 E24.87808
G1 X83.935 Y87.091 E24.89365
G1 X83.413 Y87.181 E24.91122
G1 X67.124 Y87.194 E25.45164
G1 X66.550 Y87.175 E25.47070
G1 X66.064 Y87.091 E25.48706
G1 X65.613 Y86.961 E25.50263
G1 X65.121 Y86.757 E25.52030
G1 X64.433 Y86.325 E25.54725
G1 X63.987 Y85.930 E25.56702
G1 X63.473 Y85.284 E25.59441
G1 X63.217 Y84.818 E25.61205
G1 X63.038 Y84.386 E25.62756
G1 X62.908 Y83.935 E25.64314
G1 X62.818 Y83.413 E25.66071
G1 X62.806 Y67.127 E26.20103
G1 X62.824 Y66.553 E26.22008
G1 X62.908 Y66.064 E26.23654
G1 X63.038 Y65.613 E26.25212
G1 X63.242 Y65.121 E26.26979
G1 X63.674 Y64.433 E26.29674
G1 X64.069 Y63.987 E26.31650
G0 F9000 X64.345 Y64.278
G1 F1800 X64.937 Y63.806 E26.34162
G1 X65.354 Y63.577 E26.35741
G1 X65.745 Y63.415 E26.37145
G1 X66.153 Y63.298 E26.38553
G1 X66.620 Y63.217 E26.40126
G1 X82.867 Y63.205 E26.94028
G1 X83.406 Y63.222 E26.95817
G1 X83.846 Y63.298 E26.97299
G1 X84.254 Y63.415 E26.98707
G1 X84.694 Y63.598 E27.00288
G1 X85.326 Y63.995 E27.02764
G1 X85.721 Y64.345 E27.04515
G1 X86.193 Y64.937 E27.07027
G1 X86.422 Y65.354 E27.08605
G1 X86.584 Y65.745 E27.10010
G1 X86.701 Y66.153 E27.11418
G1 X86.782 Y66.620 E27.12990
G1 X86.795 Y82.870 E27.66903
G1 X86.777 Y83.408 E27.68689
G1 X86.701 Y83.846 E27.70164
G1 X86.584 Y84.254 E27.71572
G1 X86.401 Y84.694 E27.73153
G1 X86.004 Y85.326 E27.75629
G1 X85.654 Y85.721 E27.77380
G1 X85.062 Y86.193 E27.79892
G1 X84.645 Y86.422 E27.81470
G1 X84.254 Y86.584 E27.82874
G1 X83.846 Y86.701 E27.84283
G1 X83.379 Y86.782 E27.85855
G1 X67.130 Y86.795 E28.39764
G1 X66.591 Y86.777 E28.41554
G1 X66.153 Y86.701 E28.43028
G1 X65.745 Y86.584 E28.44437
G1 X65.305 Y86.401 E28.46018
G1 X64.673 Y86.004 E28.48494
G1 X64.278 Y85.654 E28.50245
G1 X63.806 Y85.062 E28.52757
G1 X63.577 Y84.645 E28.54335
G1 X63.415 Y84.254 E28.55739
G1 X63.298 Y83.846 E28.57147
G1 X63.217 Y83.379 E28.58720
G1 X63.205 Y67.133 E29.12619
G1 X63.222 Y66.593 E29.14412
G1 X63.298 Y66.153 E29.15893
G1 X63.415 Y65.745 E29.17301
G1 X63.598 Y65.305 E29.18882
G1 X63.995 Y64.673 E29.21358
G1 X64.345 Y64.278 E29.23109
G0 F9000 X64.621 Y64.569
G1 F1800 X65.159 Y64.140 E29.25392
G1 X65.527 Y63.938 E29.26785
G1 X65.877 Y63.792 E29.28043
G1 X66.243 Y63.687 E29.29306
G1 X66.655 Y63.616 E29.30693
G1 X82.861 Y63.604 E29.84460
G1 X83.365 Y63.620 E29.86133
G1 X83.756 Y63.687 E29.87449
G1 X84.122 Y63.792 E29.88712
G1 X84.510 Y63.954 E29.90107
G1 X85.086 Y64.315 E29.92363
G1 X85.430 Y64.621 E29.93890
G1 X85.859 Y65.159 E29.96173
G1 X86.061 Y65.527 E29.97566
G1 X86.207 Y65.877 E29.98824
G1 X86.312 Y66.243 E30.00087
G1 X86.383 Y66.655 E30.01474
G1 X86.396 Y82.863 E30.55248
G1 X86.379 Y83.367 E30.56921
G1 X86.312 Y83.756 E30.58230
G1 X86.207 Y84.122 E30.59493
G1 X86.045 Y84.510 E30.60888
G1 X85.684 Y85.086 E30.63144
G1 X85.378 Y85.430 E30.64671
G1 X84.840 Y85.859 E30.66954
G1 X84.472 Y86.061 E30.68347
G1 X84.122 Y86.207 E30.69605
G1 X83.756 Y86.312 E30.70868
G1 X83.344 Y86.383 E30.72255
G1 X67.137 Y86.396 E31.26025
G1 X66.632 Y86.379 E31.27702
G1 X66.243 Y86.312 E31.29011
G1 X65.877 Y86.207 E31.30275
G1 X65.489 Y86.045 E31.31670
G1 X64.913 Y85.684 E31.33925
G1 X64.569 Y85.378 E31.35452
G1 X64.140 Y84.840 E31.37735
G1 X63.938 Y84.472 E31.39128
G1 X63.792 Y84.122 E31.40386
G1 X63.687 Y83.756 E31.41649
G1 X63.616 Y83.344 E31.43036
G1 X63.604 Y67.139 E31.96800
G1 X63.620 Y66.634 E31.98476
G1 X63.687 Y66.243 E31.99792
G1 X63.792 Y65.877 E32.01055
G1 X63.954 Y65.489 E32.02450
G1 X64.315 Y64.913 E32.04706
G1 X64.621 Y64.569 E32.06233
G0 F9000 X64.896 Y64.859
G1 F1800 X65.381 Y64.473 E32.08290
G1 X65.700 Y64.298 E32.09497
G1 X66.009 Y64.169 E32.10608
G1 X66.332 Y64.077 E32.11722
G1 X66.689 Y64.015 E32.12924
G1 X82.855 Y64.003 E32.66558
G1 X83.325 Y64.018 E32.68118
G1 X83.667 Y64.077 E32.69270
G1 X83.990 Y64.169 E32.70384
G1 X84.327 Y64.309 E32.71595
G1 X84.846 Y64.635 E32.73628
G1 X85.140 Y64.896 E32.74932
G1 X85.526 Y65.381 E32.76989
G1 X85.701 Y65.700 E32.78196
G1 X85.830 Y66.009 E32.79307
G1 X85.922 Y66.332 E32.80421
G1 X85.984 Y66.689 E32.81623
G1 X85.997 Y82.856 E33.35260
G1 X85.981 Y83.326 E33.36821
G1 X85.922 Y83.667 E33.37969
G1 X85.830 Y83.990 E33.39083
G1 X85.690 Y84.327 E33.40294
G1 X85.364 Y84.846 E33.42327
G1 X85.103 Y85.140 E33.43631
G1 X84.618 Y85.526 E33.45688
G1 X84.299 Y85.701 E33.46895
G1 X83.990 Y85.830 E33.48006
G1 X83.667 Y85.922 E33.49120
G1 X83.310 Y85.984 E33.50322
G1 X67.144 Y85.997 E34.03956
G1 X66.673 Y85.981 E34.05520
G1 X66.332 Y85.922 E34.06668
G1 X66.009 Y85.830 E34.07782
